packages/bezier-icons/icons/help-filled.svg

<svg width="24" height="24" viewBox="0 0 24 24" fill="none" xmlns="http://www.w3.org/2000/svg">
<path fill-rule="evenodd" clip-rule="evenodd" d="M12.0002 2.00011C17.5228 2.00011 22.0002 6.47715 22.0002 12.0001C22.0002 17.5231 17.5228 22.0001 12.0002 22.0001C6.47693 22.0001 2.00021 17.5234 2.00021 12.0001C2.00021 6.47682 6.47693 2.00011 12.0002 2.00011ZM12.8308 14.541H10.9299V13.8327C10.9299 12.6772 11.5552 11.5937 12.6017 10.9334C13.469 10.3871 13.9393 9.99397 13.9393 9.48575C13.9393 8.47229 12.9388 7.92505 11.9984 7.92505C10.9639 7.92505 10.0575 8.65438 10.0575 9.48575H8.15668C8.15668 7.60991 9.91546 6.0242 11.9984 6.0242C14.1524 6.0242 15.8401 7.54488 15.8401 9.48575C15.8401 11.1395 14.4475 12.0179 13.6151 12.5411C13.379 12.6902 12.8308 13.1144 12.8308 13.8327V14.541ZM11.9414 18.1723C11.2551 18.1723 10.6978 17.6161 10.6978 16.9288C10.6978 16.2415 11.2551 15.6852 11.9414 15.6852C12.6287 15.6852 13.1849 16.2415 13.1849 16.9288C13.1849 17.6161 12.6287 18.1723 11.9414 18.1723Z" fill="#313234"/>
</svg>

<svg xmlns="http://www.w3.org/2000/svg" width="24" height="24" fill="none" viewBox="0 0 24 24"><path fill="#313234" fill-rule="evenodd" d="M12 2c5.523 0 10 4.477 10 10s-4.477 10-10 10S2 17.523 2 12 6.477 2 12 2m.83 12.541h-1.9v-.708c0-1.156.625-2.24 1.672-2.9.867-.546 1.337-.939 1.337-1.447 0-1.014-1-1.561-1.94-1.561-1.035 0-1.942.73-1.942 1.56h-1.9c0-1.875 1.758-3.46 3.841-3.46 2.154 0 3.842 1.52 3.842 3.46 0 1.655-1.392 2.533-2.225 3.056-.236.15-.784.573-.784 1.292zm-.889 3.631a1.244 1.244 0 1 1 0-2.487 1.244 1.244 0 0 1 0 2.487" clip-rule="evenodd"/></svg>
